X: 1
T: The Halting March
R: barndance
M: 4/4
L: 1/8
K: Ador
A2 B/c/d|e e2 d|e>d ef|ec A2|G2 Bc|d d2 e|dB GB|d2 cB|
A2 B/c/d|e e2 d|e>d ef|ec A2|a g2 e|d c2 B|A>B AG|1 A2E2:|2 A2z2||
a a2 g|e d2 e|g>a ge|dB G2|a a2 g|e d2 e|g>a ge|g2 a/g/e/g/|
a a2 g|e d2 e|g>a ge|dB G2|A>B cd|e2 dB|A>B cd|e2 e2|
a a2 g|e d2 e|g>a ge|dB G2|A>B cd|e2 dB|A>B AG|A2E2||


Tune 1330	Setting 23545

